assets/svg/python.svg

<?xml version="1.0" encoding="UTF-8"?>
<svg width="39px" height="39px" viewBox="0 0 39 39" version="1.1" xmlns="http://www.w3.org/2000/svg" xmlns:xlink="http://www.w3.org/1999/xlink">
    <title>python</title>
    <defs>
        <linearGradient x1="12.9593594%" y1="12.0393928%" x2="79.6388325%" y2="78.2008538%" id="linearGradient-1">
            <stop stop-color="#387EB8" offset="0%"></stop>
            <stop stop-color="#366994" offset="100%"></stop>
        </linearGradient>
        <linearGradient x1="19.127525%" y1="20.5791813%" x2="90.7415328%" y2="88.4290372%" id="linearGradient-2">
            <stop stop-color="#FFE052" offset="0%"></stop>
            <stop stop-color="#FFC331" offset="100%"></stop>
        </linearGradient>
    </defs>
    <g id="Garage" stroke="none" stroke-width="1" fill="none" fill-rule="evenodd">
        <g id="Yard-/-Pricing-Copy-2" transform="translate(-803.000000, -3770.000000)" fill-rule="nonzero">
            <g id="Features" transform="translate(465.000000, 1330.000000)">
                <g id="Langs" transform="translate(150.000000, 2133.000000)">
                    <g id="Group-5" transform="translate(0.000000, 179.000000)">
                        <g id="python" transform="translate(188.000000, 128.000000)">
                            <path d="M19.3016964,4.61852778e-14 C9.43059077,4.61852778e-14 10.0470062,4.28070694 10.0470062,4.28070694 L10.0580106,8.71547527 L19.4777668,8.71547527 L19.4777668,10.0470062 L6.3165187,10.0470062 C6.3165187,10.0470062 6.32383035e-13,9.33065543 6.32383035e-13,19.290692 C6.32383035e-13,29.2507266 5.51319838,28.8975228 5.51319838,28.8975228 L8.80351038,28.8975228 L8.80351038,24.2756799 C8.80351038,24.2756799 8.62615416,18.7624815 14.2286737,18.7624815 L23.571399,18.7624815 C23.571399,18.7624815 28.8204921,18.8473333 28.8204921,13.6894586 L28.8204921,5.16105797 C28.8204921,5.16105726 29.6174493,4.61852778e-14 19.3016964,4.61852778e-14 L19.3016964,4.61852778e-14 L19.3016964,4.61852778e-14 Z M14.1076254,2.98218914 C15.0448221,2.98218914 15.8023012,3.73966817 15.8023012,4.67686489 C15.8023012,5.61406161 15.0448221,6.37154064 14.1076254,6.37154064 C13.1704287,6.37154064 12.4129496,5.61406161 12.4129496,4.67686489 C12.4129496,3.73966817 13.1704287,2.98218914 14.1076254,2.98218914 L14.1076254,2.98218914 L14.1076254,2.98218914 Z" id="Shape" fill="url(#linearGradient-1)"></path>
                            <path d="M19.5820355,38.6812513 C29.4531441,38.6812513 28.8367258,34.4005443 28.8367258,34.4005443 L28.8257215,29.965776 L19.4059653,29.965776 L19.4059653,28.634245 L32.5672134,28.634245 C32.5672134,28.634245 38.8837321,29.3505938 38.8837321,19.3905557 C38.8837321,9.43052211 33.3705337,9.78372598 33.3705337,9.78372598 L30.0802216,9.78372598 L30.0802216,14.4055679 C30.0802216,14.4055679 30.2575807,19.9187663 24.6550584,19.9187663 L15.3123322,19.9187663 C15.3123322,19.9187663 10.0632392,19.8339146 10.0632392,24.9917926 L10.0632392,33.5201934 C10.0632392,33.5201934 9.26628206,38.6812513 19.5820355,38.6812513 L19.5820355,38.6812513 L19.5820355,38.6812513 Z M24.7761065,35.6990622 C23.8389096,35.6990622 23.0814309,34.9415835 23.0814309,34.0043864 C23.0814309,33.0671892 23.8389096,32.3097106 24.7761065,32.3097106 C25.7133037,32.3097106 26.4707823,33.0671892 26.4707823,34.0043864 C26.4707823,34.9415835 25.7133037,35.6990622 24.7761065,35.6990622 L24.7761065,35.6990622 L24.7761065,35.6990622 Z" id="Shape" fill="url(#linearGradient-2)"></path>
                        </g>
                    </g>
                </g>
            </g>
        </g>
    </g>
</svg>

<svg width="39" height="39" xmlns="http://www.w3.org/2000/svg"><defs><linearGradient x1="12.959%" y1="12.039%" x2="79.639%" y2="78.201%" id="a"><stop stop-color="#387EB8" offset="0%"/><stop stop-color="#366994" offset="100%"/></linearGradient><linearGradient x1="19.128%" y1="20.579%" x2="90.742%" y2="88.429%" id="b"><stop stop-color="#FFE052" offset="0%"/><stop stop-color="#FFC331" offset="100%"/></linearGradient></defs><g fill-rule="nonzero" fill="none"><path d="M19.302 0c-9.871 0-9.255 4.28-9.255 4.28l.011 4.435h9.42v1.332H6.317S0 9.331 0 19.291c0 9.96 5.513 9.607 5.513 9.607h3.29v-4.622s-.177-5.514 5.426-5.514h9.342s5.25.085 5.25-5.073V5.161S29.616 0 19.3 0zm-5.194 2.982c.937 0 1.694.758 1.694 1.695s-.757 1.695-1.694 1.695a1.693 1.693 0 01-1.695-1.695c0-.937.757-1.695 1.695-1.695z" fill="url(#a)"/><path d="M19.582 38.681c9.871 0 9.255-4.28 9.255-4.28l-.011-4.435h-9.42v-1.332h13.161s6.317.717 6.317-9.243-5.513-9.607-5.513-9.607h-3.29v4.622s.177 5.513-5.426 5.513h-9.343s-5.249-.085-5.249 5.073v8.528s-.797 5.161 9.519 5.161zm5.194-2.982a1.693 1.693 0 01-1.695-1.695c0-.937.758-1.694 1.695-1.694s1.695.757 1.695 1.694c0 .938-.758 1.695-1.695 1.695z" fill="url(#b)"/></g></svg>
